X: 28771
T: My Love Is A Band Boy
R: waltz
M: 3/4
K: Gmajor
AB|c2 B2 A2|G2 E2 D2|E2 A2 AG|A4 AB|c2 d2 e2|g2 e2 d2|c2 d2 e2|d4 AB|
c2 d2 e2|g2 e2 d2|c2 ded|G4 ed|c2 B2 A2|G2 E2 D2|E2 A2 AG|A4 AB||
c2 EG E2|G2 EG E2|c2 EG E2|G4 AB|c2 B2 A2|G2 E2 D2|E2 A2 AG|A4 AB|
c2 EG E2|G2 EG E2|c2 EG E2|G4 AB|cBc def|g2 e2 d2|c2 A2 AG|A4:|

